icon-themes/breeze_svg/cmd/lc_distributerows.svg

<svg viewBox="0 0 24 24" xmlns="http://www.w3.org/2000/svg"><path d="m4 4v4h1v-2-1h2v4h1v-4h2v4h1v-4h2v4h1v-4h2v4h1v-4h2v1 1 1h1v-4zm0 6v1 2 1h1 6v1 1h-2l3 4 3-4h-2v-1-1h6 1v-1-2-1zm1 1h2v2h-2zm3 0h2v2h-2zm3 0h2v2h-2zm3 0h2v2h-2zm3 0h2v2h-2z" fill="#4d4d4d"/></svg>

<svg xmlns="http://www.w3.org/2000/svg" viewBox="0 0 24 24">
 <path 
     style="fill:#4d4d4d" 
     d="M 4 4 L 4 8 L 5 8 L 5 6 L 5 5 L 7 5 L 7 9 L 8 9 L 8 5 L 10 5 L 10 9 L 11 9 L 11 5 L 13 5 L 13 9 L 14 9 L 14 5 L 16 5 L 16 9 L 17 9 L 17 5 L 19 5 L 19 6 L 19 7 L 19 8 L 20 8 L 20 4 L 4 4 z M 4 10 L 4 11 L 4 13 L 4 14 L 5 14 L 11 14 L 11 15 L 11 16 L 9 16 L 12 20 L 15 16 L 13 16 L 13 15 L 13 14 L 19 14 L 20 14 L 20 13 L 20 11 L 20 10 L 4 10 z M 5 11 L 7 11 L 7 13 L 5 13 L 5 11 z M 8 11 L 10 11 L 10 13 L 8 13 L 8 11 z M 11 11 L 13 11 L 13 13 L 11 13 L 11 11 z M 14 11 L 16 11 L 16 13 L 14 13 L 14 11 z M 17 11 L 19 11 L 19 13 L 17 13 L 17 11 z "
     />
 </svg>
